dist/img/svg/tel.svg

<svg width="15" height="15" viewBox="0 0 15 15" fill="none" xmlns="http://www.w3.org/2000/svg">
<path d="M10.7006 13.9195C8.38209 13.3253 6.26595 12.1188 4.57355 10.4264C2.88116 8.73405 1.67473 6.61791 1.0805 4.29945C0.626405 2.51558 2.16032 0.999999 4.00167 1L4.83487 1C5.29479 1 5.6639 1.3741 5.70972 1.83153C5.7845 2.59017 5.96366 3.33485 6.24213 4.04449L4.97568 5.31094C5.96413 7.37303 7.62697 9.03587 9.68905 10.0243L10.9555 8.75787C11.6651 9.03662 12.4098 9.21607 13.1685 9.29111C13.6267 9.3361 14 9.70521 14 10.1651L14 10.9983C14 12.8397 12.4844 14.3736 10.7006 13.9195Z" stroke="black" stroke-width="1.3" stroke-linecap="round" stroke-linejoin="round"/>
</svg>

<svg width="15" height="15" viewBox="0 0 15 15" fill="none" xmlns="http://www.w3.org/2000/svg"><path d="M10.7 13.92A13.353 13.353 0 011.08 4.3C.626 2.515 2.16 1 4.002 1h.833c.46 0 .829.374.875.832.075.758.254 1.503.532 2.212L4.976 5.311a10.039 10.039 0 004.713 4.713l1.267-1.266c.71.279 1.454.458 2.213.533.458.045.831.414.831.874v.833c0 1.842-1.516 3.376-3.3 2.921z" stroke="#000" stroke-width="1.3" stroke-linecap="round" stroke-linejoin="round"/></svg>
